X: 19962
T: Jim Anderson's Delight
R: jig
M: 6/8
K: Amajor
a2f|:eAA cBA|efg aga|fBB fga|bag agf|
eAA cBA|efg agf|edc dcB|cAA a2f:|
|:e2a c2f|efg aga|fBB fga|bag agf|
[1 e2a c2f|efg aga|edc dcB|cAA a2f:|
[2 eAA cBA|efg a2f|edc dcB|cAA||

